icons/megaphone-16.svg

<svg xmlns="http://www.w3.org/2000/svg" width="16" height="16" viewBox="0 0 16 16"><g fill-rule="evenodd"><path d="M3.25 9a.75.75 0 01.75.75c0 2.142.456 3.828.733 4.653a.121.121 0 00.05.064.207.207 0 00.117.033h1.31c.085 0 .18-.042.258-.152a.448.448 0 00.075-.366A16.74 16.74 0 016 9.75a.75.75 0 011.5 0c0 1.588.25 2.926.494 3.85.293 1.113-.504 2.4-1.783 2.4H4.9c-.686 0-1.35-.41-1.589-1.12A16.42 16.42 0 012.5 9.75.75.75 0 013.25 9z"/><path d="M0 6a4 4 0 014-4h2.75a.75.75 0 01.75.75v6.5a.75.75 0 01-.75.75H4a4 4 0 01-4-4zm4-2.5a2.5 2.5 0 000 5h2v-5H4z"/><path d="M15.59.082A.75.75 0 0116 .75v10.5a.75.75 0 01-1.189.608l-.002-.001h.001l-.014-.01a5.829 5.829 0 00-.422-.25 10.58 10.58 0 00-1.469-.64C11.576 10.484 9.536 10 6.75 10a.75.75 0 110-1.5c2.964 0 5.174.516 6.658 1.043.423.151.787.302 1.092.443V2.014c-.305.14-.669.292-1.092.443C11.924 2.984 9.713 3.5 6.75 3.5a.75.75 0 110-1.5c2.786 0 4.826-.484 6.155-.957.665-.236 1.154-.47 1.47-.64a5.82 5.82 0 00.421-.25l.014-.01a.75.75 0 01.78-.061zm-.78.06zm.44 11.108l-.44.607.44-.607z"/></g></svg>

<svg xmlns="http://www.w3.org/2000/svg" width="16" height="16" viewBox="0 0 16 16">
  <defs/>
  <path d="M3.25,9 C3.664,9 4,9.336 4,9.75 C4,11.892 4.456,13.578 4.733,14.403 C4.742,14.429 4.759,14.452 4.783,14.467 C4.818,14.489 4.859,14.501 4.9,14.5 L6.21,14.5 C6.295,14.5 6.39,14.458 6.468,14.348 C6.545,14.243 6.572,14.109 6.543,13.982 C6.182,12.6 6,11.178 6,9.75 C6,9.336 6.336,9 6.75,9 C7.164,9 7.5,9.336 7.5,9.75 C7.5,11.338 7.75,12.676 7.994,13.6 C8.287,14.713 7.49,16 6.211,16 L4.9,16 C4.214,16 3.55,15.59 3.311,14.88 C2.77,13.224 2.496,11.492 2.5,9.75 C2.5,9.336 2.836,9 3.25,9 Z"/>
  <path d="M0,6 C0,3.791 1.791,2 4,2 L6.75,2 C7.164,2 7.5,2.336 7.5,2.75 L7.5,9.25 C7.5,9.664 7.164,10 6.75,10 L4,10 C1.791,10 0,8.209 0,6 Z M4,3.5 C2.619,3.5 1.5,4.619 1.5,6 C1.5,7.381 2.619,8.5 4,8.5 L6,8.5 L6,3.5 Z"/>
  <path d="M15.59,0.082 C15.841,0.21 16,0.468 16,0.75 L16,11.25 C16,11.532 15.842,11.789 15.591,11.918 C15.341,12.046 15.039,12.023 14.811,11.858 L14.809,11.857 L14.81,11.857 L14.796,11.847 C14.659,11.758 14.518,11.674 14.374,11.597 C13.901,11.347 13.41,11.133 12.905,10.957 C11.576,10.484 9.536,10 6.75,10 C6.336,10 6,9.664 6,9.25 C6,8.836 6.336,8.5 6.75,8.5 C9.714,8.5 11.924,9.016 13.408,9.543 C13.831,9.694 14.195,9.845 14.5,9.986 L14.5,2.014 C14.195,2.154 13.831,2.306 13.408,2.457 C11.924,2.984 9.713,3.5 6.75,3.5 C6.336,3.5 6,3.164 6,2.75 C6,2.336 6.336,2 6.75,2 C9.536,2 11.576,1.516 12.905,1.043 C13.57,0.807 14.059,0.573 14.375,0.403 C14.519,0.326 14.659,0.242 14.796,0.153 L14.81,0.143 C15.038,-0.022 15.339,-0.046 15.59,0.082 Z"/>
</svg>
